X: 2346
T: COOPER'S HORNPIPE
%R: hornpipe, reel
B: James Kerr "Merry Melodies" v.2 p.38 #346
Z: 2016 John Chambers <jc:trillian.mit.edu>
M: C
L: 1/8
K: D
(uAG) |:\
(vFA)d2 d2cB | (ucd)e2 e2[1 de |\
fafd gfed | cded cBAG :|[2 ag |\
fdec dABG | F2D2D2 ::\
(3(ABc) |\
dAFA DFAd |
edcB Aceg |\
fdAF DFAd | edcB A2A2 |\
BGBd gfed | cAce d2(ag) |\
fdec dABG | F2D2D2 :|
